public/img/ecosystem/breeze.min.svg

<svg fill="none" viewBox="0 0 78 78" xmlns="http://www.w3.org/2000/svg"><path d="m39 75c19.882 0 36-16.118 36-36s-16.118-36-36-36-36 16.118-36 36 16.118 36 36 36z" stroke="#fff" stroke-width="5"/><path d="m61.9 16-23 22.9v-16.1l6.7-6.7h16.3zm-23 22.9 23 23v-16.2l-6.8-6.8zm-6.7 23 6.7-6.7v-16.3l-22.9 23zm-16.2-29.7 6.7 6.7h16.2l-22.9-22.9z" fill="#fff"/></svg>

<svg viewBox="0 0 78 78" fill="none" xmlns="http://www.w3.org/2000/svg"><path d="M39 75c19.882 0 36-16.118 36-36S58.882 3 39 3 3 19.118 3 39s16.118 36 36 36Z" stroke="#fff" stroke-width="5"/><path d="m61.9 16-23 22.9V22.8l6.7-6.7h16.3V16Zm-23 22.9 23 23V45.7l-6.8-6.8H38.9Zm-6.7 23 6.7-6.7V38.9L16 61.9h16.2ZM16 32.2l6.7 6.7h16.2L16 16v16.2Z" fill="#fff"/></svg>
